X:1
T:Title
%%score { ( 1 3 ) | ( 2 4 ) }
L:1/8
Q:1/4=110
M:3/4
K:Ab
V:1 treble nm="Grand Piano"
V:3 treble 
V:2 bass 
V:4 bass 
V:1
 [Ec]2 [Ec]2 [=Ec]2 | [Fd]2 [Ec]2 [CA]2 | B2 A2 F2 | [A,CE]4 z2 | [A,CA]2 [A,CA]2 [A,CA]2 | %5
w: H.~P.~Danks * *|||||
 [CA]2 z2 z2 | [EB]6- | [EB]6 | [Ec]2 [Ec]2 [=Ec]2 | [Fd]2 [Ec]2 [EB]2 | [A,EA]2 [B,=EG]2 [A,FA]2 | %11
w: ||||||
 D2 z2 z2 | E2 A2 c2 | B2 E2 B2 | A4- [DA-]2 | [CA]4 z2 | B2 B2 B2 | B2 c2 [=DB]2 | e2 =d2 c2 | %19
w: ||||||||
 B4 z2 | [Ec]2 [Ec]2 [Ec]2 | [EB]2 [B,EG]2 [G,E]2 | [A,=DF]2 [B,DG]2 [A,DF]2 | [G,E]6 | %24
w: |||||
 [A,CE]2 [F,_C=D]2 [E,=CE]2 | [Ec]2 [EB]2 [A,EA]2 | [A,FA]2 [B,=EG]2 [A,FA]2 | D2 z2 z2 | %28
w: ||||
 E2 A2 c2 | B2 E2 B2 | A4- [DA-]2 | [CA]6 |] %32
w: ||||
V:2
 [A,,A,]2 [A,,A,]2 [A,,A,]2 | [A,,A,]2 [A,,A,]2 [A,,A,]2 | [D,F,D]2 [D,F,D]2 [D,A,D]2 | A,,4 z2 | %4
 F,2 F,2 F,2 | z z/ (3z/4[K:treble] B/4-[AB]/4[K:bass] B,2 B,,2 | [E,G,]4 F,2 | G,2 F,2 E,2 | %8
 [A,,A,]2 [A,,A,]2 [A,,A,]2 | [A,,A,]2 [A,,A,]2 [B,,G,]2 | C,2 C,2 C,2 | z2 B,2 =D,2 | %12
 [E,A,C]2 [E,A,C]2 [E,A,E]2 | [E,G,D]4 [E,G,D]2 | z2 z2 F,2 | [A,,E,]4 z2 | %16
 [E,G,E]2 [E,G,E]2 [E,G,E]2 | [F,A,=D]2 [F,A,D]2 [B,,A,]2 | [E,G,E]2 [E,B,E]2 [E,A,E]2 | %19
 [E,G,E]4 z2 | [A,,A,]2 [A,,F,]2 [=A,,_G,]2 | [B,,G,]2 B,,2 B,,2 | B,,2 B,,2 B,,2 | z2 z2 D2 | %24
 A,,2 A,,2 A,,2 | [A,,A,]2 [B,,G,]2 C,2 | D,2 D,2 D,2 | z2 B,2 =D,2 | [E,A,C]2 [E,A,C]2 [E,A,E]2 | %29
 [E,G,D]4 [E,G,D]2 | z2 z2 F,2 | E,6 |] %32
V:3
 x6 | x6 | x6 | x6 | x6 | =D2- [DG]2 [A,DA]2 | z2 z2 A,2 | B,2 A,2 G,2 | x6 | x6 | x6 | %11
 [A,F]4- [A,_CF]2 | x6 | x6 | [A,C]4 z2 | x6 | x6 | x6 | x6 | x6 | x6 | x6 | x6 | x6 | x6 | x6 | %26
 x6 | [A,F]4- [A,_CF]2 | x6 | x6 | [A,C]4 z2 | x6 |] %32
V:4
 x6 | x6 | x6 | x6 | x6 | B,,4[K:treble][K:bass] z2 | x6 | x6 | x6 | x6 | x6 | D,4 z2 | x6 | x6 | %14
 A,,6 | x6 | x6 | x6 | x6 | x6 | x6 | x6 | x6 | E,6 | x6 | x6 | x6 | D,4 z2 | x6 | x6 | A,,6- | %31
 A,,6 |] %32

